svg/color/inj.svg

<svg width="64" height="65" viewBox="0 0 64 65" fill="none" xmlns="http://www.w3.org/2000/svg">
<rect y="0.303711" width="64" height="64" rx="32" fill="white"/>
<rect x="0.5" y="0.803711" width="63" height="63" rx="31.5" stroke="#070B14" stroke-opacity="0.15"/>
<path d="M11.1508 14.2969C11.4926 13.8673 11.8548 13.454 12.217 13.0406C12.2332 13.0201 12.27 13.0159 12.2862 12.9954C12.3188 12.9546 12.3718 12.9299 12.4043 12.8889L12.4369 12.8481C12.6894 12.6147 12.9581 12.3606 13.2678 12.1394C14.3638 11.3074 15.5012 10.6753 16.7005 10.2595C20.5473 8.90899 24.8293 9.74126 28.1873 12.9112C32.876 17.3061 32.4561 24.3859 28.7133 29.0916C23.9836 36.1067 15.8554 45.8938 27.1095 54.6612C29.133 56.2377 30.6341 57.5374 37.0081 59.3793C32.8394 60.1471 28.9741 59.9083 24.6716 58.8094C21.6284 57.0918 16.8438 53.4141 15.2159 48.4468C12.7556 40.9143 19.5475 29.6537 22.8299 25.3168C27.3366 19.3147 20.0444 12.8172 14.6758 20.071C11.8695 23.8513 6.95995 34.5486 8.66611 42.4835C9.66368 46.9832 10.9933 50.2631 16.2654 54.7687C15.2878 54.1918 14.3384 53.5375 13.4174 52.8054C1.16812 41.3957 2.58925 23.754 11.1508 14.2969Z" fill="url(#paint0_linear_11313_5238)"/>
<path d="M52.8497 50.3106C52.5079 50.7403 52.1457 51.1536 51.7835 51.567C51.7672 51.5875 51.7305 51.5917 51.7143 51.6122C51.6817 51.653 51.6287 51.6777 51.5962 51.7187L51.5636 51.7595C51.3111 51.9929 51.0424 52.2469 50.7326 52.4682C49.6367 53.3002 48.4993 53.9323 47.3 54.3481C43.4532 55.6986 39.1711 54.8663 35.8132 51.6964C31.1245 47.3015 31.5443 40.2217 35.2872 35.516C40.0169 28.5009 48.1451 18.7137 36.891 9.94638C34.8675 8.36993 33.3664 7.07021 26.9924 5.22831C31.1611 4.46039 35.0264 4.69927 39.3287 5.79815C42.3721 7.51579 47.1567 11.1935 48.7846 16.1608C51.2449 23.6933 44.453 34.9539 41.1706 39.2908C36.6639 45.2929 43.956 51.7904 49.3247 44.5366C52.131 40.7563 57.0405 30.059 55.3344 22.1241C54.3368 17.6244 53.0072 14.3445 47.7351 9.83891C48.7127 10.4158 49.6621 11.0701 50.5831 11.8022C62.8324 23.2119 61.4112 40.8536 52.8497 50.3106Z" fill="url(#paint1_linear_11313_5238)"/>
<defs>
<linearGradient id="paint0_linear_11313_5238" x1="4.47681" y1="32.3052" x2="59.5231" y2="32.3052" gradientUnits="userSpaceOnUse">
<stop stop-color="#0082FA"/>
<stop offset="1" stop-color="#00F2FE"/>
</linearGradient>
<linearGradient id="paint1_linear_11313_5238" x1="4.47741" y1="32.3024" x2="59.5237" y2="32.3024" gradientUnits="userSpaceOnUse">
<stop stop-color="#0082FA"/>
<stop offset="1" stop-color="#00F2FE"/>
</linearGradient>
</defs>
</svg>

<svg xmlns="http://www.w3.org/2000/svg" width="64" height="65" fill="none" viewBox="0 0 64 65"><rect width="64" height="64" y=".304" fill="#fff" rx="32"/><rect width="63" height="63" x=".5" y=".804" stroke="#070B14" stroke-opacity=".15" rx="31.5"/><path fill="url(#inj_svg-a)" d="M11.15 14.297c.343-.43.705-.843 1.067-1.256.016-.02.053-.025.07-.046.032-.04.085-.065.117-.106l.033-.04c.252-.234.521-.488.83-.71 1.097-.832 2.234-1.464 3.434-1.88 3.846-1.35 8.128-.518 11.486 2.652 4.689 4.395 4.27 11.475.526 16.18-4.73 7.016-12.858 16.803-1.604 25.57 2.024 1.577 3.525 2.876 9.9 4.718-4.17.768-8.035.53-12.337-.57-3.044-1.717-7.828-5.395-9.456-10.362-2.46-7.533 4.332-18.793 7.614-23.13 4.507-6.002-2.786-12.5-8.154-5.246-2.806 3.78-7.716 14.478-6.01 22.412.998 4.5 2.327 7.78 7.6 12.286a25 25 0 0 1-2.849-1.964C1.168 41.395 2.59 23.754 11.151 14.297"/><path fill="url(#inj_svg-b)" d="M52.85 50.31c-.342.43-.704.844-1.067 1.257-.016.02-.053.025-.069.045-.032.041-.085.066-.118.107l-.032.04c-.253.234-.522.488-.831.71-1.096.831-2.234 1.463-3.433 1.88-3.847 1.35-8.129.517-11.487-2.653-4.689-4.395-4.269-11.474-.526-16.18 4.73-7.015 12.858-16.802 1.604-25.57-2.023-1.576-3.525-2.876-9.899-4.718 4.17-.768 8.034-.529 12.337.57 3.043 1.718 7.828 5.396 9.456 10.363 2.46 7.532-4.332 18.793-7.614 23.13-4.507 6.002 2.785 12.5 8.154 5.246 2.806-3.78 7.715-14.478 6.01-22.413-.998-4.5-2.328-7.78-7.6-12.285a25 25 0 0 1 2.848 1.963c12.25 11.41 10.828 29.052 2.267 38.509"/><defs><linearGradient id="inj_svg-a" x1="4.477" x2="59.523" y1="32.305" y2="32.305" gradientUnits="userSpaceOnUse"><stop stop-color="#0082FA"/><stop offset="1" stop-color="#00F2FE"/></linearGradient><linearGradient id="inj_svg-b" x1="4.477" x2="59.524" y1="32.302" y2="32.302" gradientUnits="userSpaceOnUse"><stop stop-color="#0082FA"/><stop offset="1" stop-color="#00F2FE"/></linearGradient></defs></svg>
